X:1
T:Title
%%score { ( 1 3 ) | ( 2 4 ) }
L:1/8
Q:1/4=114
M:6/4
K:Ab
V:1 treble nm="Grand Piano"
V:3 treble 
V:2 bass 
V:4 bass 
V:1
 [CA]2 [CA]2 [CA]2 [DG]4 [DF]2 | [CE]12 | c2 c2 c2 B4 A2 | B12 | [CA]2 [CA]2 [CA]2 [CG]4 [CF]2 | %5
w: Leonard~C.~Voke * * * *|||||
 [DF]4 [DE]2 [CE]6 | c2 B2 A2 [DFB]4 [DEG]2 | [CEA]12 | [Dd]4 [Dd]2 [Ec]2 [GB]2 [FA]2 | %9
w: ||||
[M:7/4] z4 [=Ec]2 z2 z2 z4 |[M:6/4] G4 F2 E2 A2 c2 | B4 A2 [CA]6 |] %12
w: |||
V:2
 [A,,E,]2 [A,,E,]2 [A,,E,]2 [A,,F,]4 [A,,G,]2 | [A,,A,]12 | %2
 [A,E]2 [A,E]2 [A,E]2 [G,B,E]4 [F,B,=D]2 | E6 z6 | [A,,E,]2 [A,,E,]2 [A,,E,]2 [A,,=D,]4 [G,,F,]2 | %5
 [B,,G,]4 [E,G,]2 [A,,A,]6 | [E,A,E]2 [=E,G,D]2 [F,A,C]2 D,4 E,2 | A,,12 | %8
 [F,A,]4 [=E,A,]2 [_E,A,]2 [=E,D]2 [E,C]2 |[M:7/4] [D,B,]4 .[C,A,]2 [F,C]6 [F,C]2 | %10
[M:6/4] [D,A,_C]4 [D,A,C]2 [E,A,=C]2 [E,CE]2 [F,A,=D]2 | [E,G,D]4 [E,B,D]2 [A,,A,]6 |] %12
V:3
 x12 | x12 | x12 | z6 D6 | x12 | x12 | x12 | x12 | x12 |[M:7/4] [FB]4 z G, A6 A2 |[M:6/4] x12 | %11
 x12 |] %12
V:4
 x12 | x12 | x12 | [E,G,]12 | x12 | x12 | x12 | x12 | x12 |[M:7/4] x14 |[M:6/4] x12 | x12 |] %12

